X:1
T: Fen
C:Gary Thomas
R:Reel
Q: 232
K:G
M:4/4
L:1/8
|:D2|G2 dc BA GB|A2 GA BG D2|G2 dc BA GB|A2 D2 G2 D2|
G2 dc BA GB|A2 GA BG D2|E2 CE A,2 F2|G6 GA|
B2 dc BA GF|E2 CD E2 E2|A2 ^cB AG FE|F2 A2 d2 dc|
B2 GF E2 cB|AG AE ^D2 BA|GF EF B,2 ^D2|E6:|
